fs/javascript_16_regular.svg

<svg viewBox="0 0 16 16" fill="none" xmlns="http://www.w3.org/2000/svg" height="1em" width="1em">
  <path d="M8.5 7.5C8.5 6.67157 9.17157 6 10 6H11.5C11.7761 6 12 6.22386 12 6.5C12 6.77614 11.7761 7 11.5 7H10C9.72386 7 9.5 7.22386 9.5 7.5V8C9.5 8.27614 9.72386 8.5 10 8.5H10.5C11.3284 8.5 12 9.17157 12 10V10.5C12 11.3284 11.3284 12 10.5 12H9C8.72386 12 8.5 11.7761 8.5 11.5C8.5 11.2239 8.72386 11 9 11H10.5C10.7761 11 11 10.7761 11 10.5V10C11 9.72386 10.7761 9.5 10.5 9.5H10C9.17157 9.5 8.5 8.82843 8.5 8V7.5ZM8 6.5C8 6.22386 7.77614 6 7.5 6C7.22386 6 7 6.22386 7 6.5V10.5C7 10.7761 6.77614 11 6.5 11H5.5C5.22386 11 5 11.2239 5 11.5C5 11.7761 5.22386 12 5.5 12H6.5C7.32843 12 8 11.3284 8 10.5V6.5ZM2 4.5C2 3.11929 3.11929 2 4.5 2H11.5C12.8807 2 14 3.11929 14 4.5V11.5C14 12.8807 12.8807 14 11.5 14H4.5C3.11929 14 2 12.8807 2 11.5V4.5ZM4.5 3C3.67157 3 3 3.67157 3 4.5V11.5C3 12.3284 3.67157 13 4.5 13H11.5C12.3284 13 13 12.3284 13 11.5V4.5C13 3.67157 12.3284 3 11.5 3H4.5Z" fill="#212121"/>
</svg>

<svg viewBox="0 0 16 16" fill="none" xmlns="http://www.w3.org/2000/svg" height="1em" width="1em">
  <path d="M8.5 7.5A1.5 1.5 0 0 1 10 6h1.5a.5.5 0 0 1 0 1H10a.5.5 0 0 0-.5.5V8a.5.5 0 0 0 .5.5h.5A1.5 1.5 0 0 1 12 10v.5a1.5 1.5 0 0 1-1.5 1.5H9a.5.5 0 0 1 0-1h1.5a.5.5 0 0 0 .5-.5V10a.5.5 0 0 0-.5-.5H10A1.5 1.5 0 0 1 8.5 8v-.5Zm-.5-1a.5.5 0 0 0-1 0v4a.5.5 0 0 1-.5.5h-1a.5.5 0 0 0 0 1h1A1.5 1.5 0 0 0 8 10.5v-4Zm-6-2A2.5 2.5 0 0 1 4.5 2h7A2.5 2.5 0 0 1 14 4.5v7a2.5 2.5 0 0 1-2.5 2.5h-7A2.5 2.5 0 0 1 2 11.5v-7ZM4.5 3A1.5 1.5 0 0 0 3 4.5v7A1.5 1.5 0 0 0 4.5 13h7a1.5 1.5 0 0 0 1.5-1.5v-7A1.5 1.5 0 0 0 11.5 3h-7Z" fill="#212121"/>
</svg>
